images/food_icon_04.svg

<svg fill="none" height="40" viewBox="0 0 41 40" width="41" xmlns="http://www.w3.org/2000/svg"><g fill="#8f00ff" stroke="#8f00ff" stroke-linecap="round" stroke-linejoin="round"><path d="m17 22.4375c1.2944 0 2.3438-1.0913 2.3438-2.4375s-1.0494-2.4375-2.3438-2.4375-2.3438 1.0913-2.3438 2.4375 1.0494 2.4375 2.3438 2.4375z"/><path d="m17 8.625c1.2944 0 2.3438-1.09131 2.3438-2.4375s-1.0494-2.4375-2.3438-2.4375-2.3438 1.09131-2.3438 2.4375 1.0494 2.4375 2.3438 2.4375z"/><path d="m17 36.25c1.2944 0 2.3438-1.0913 2.3438-2.4375s-1.0494-2.4375-2.3438-2.4375-2.3438 1.0913-2.3438 2.4375 1.0494 2.4375 2.3438 2.4375z"/><path d="m3.71875 22.4375c1.29442 0 2.34375-1.0913 2.34375-2.4375s-1.04933-2.4375-2.34375-2.4375-2.34375 1.0913-2.34375 2.4375 1.04933 2.4375 2.34375 2.4375z"/><path d="m3.71875 8.625c1.29442 0 2.34375-1.09131 2.34375-2.4375s-1.04933-2.4375-2.34375-2.4375-2.34375 1.09131-2.34375 2.4375 1.04933 2.4375 2.34375 2.4375z"/><path d="m3.71875 36.25c1.29442 0 2.34375-1.0913 2.34375-2.4375s-1.04933-2.4375-2.34375-2.4375-2.34375 1.0913-2.34375 2.4375 1.04933 2.4375 2.34375 2.4375z"/><path d="m30.2812 22.4375c1.2945 0 2.3438-1.0913 2.3438-2.4375s-1.0493-2.4375-2.3438-2.4375c-1.2944 0-2.3437 1.0913-2.3437 2.4375s1.0493 2.4375 2.3437 2.4375z"/><path d="m30.2812 8.625c1.2945 0 2.3438-1.09131 2.3438-2.4375s-1.0493-2.4375-2.3438-2.4375c-1.2944 0-2.3437 1.09131-2.3437 2.4375s1.0493 2.4375 2.3437 2.4375z"/><path d="m30.2812 36.25c1.2945 0 2.3438-1.0913 2.3438-2.4375s-1.0493-2.4375-2.3438-2.4375c-1.2944 0-2.3437 1.0913-2.3437 2.4375s1.0493 2.4375 2.3437 2.4375z"/></g></svg>

<svg width="41" height="40" viewBox="0 0 41 40" fill="none" xmlns="http://www.w3.org/2000/svg">
<path d="M17 22.4375C18.2944 22.4375 19.3438 21.3462 19.3438 20C19.3438 18.6538 18.2944 17.5625 17 17.5625C15.7056 17.5625 14.6562 18.6538 14.6562 20C14.6562 21.3462 15.7056 22.4375 17 22.4375Z" fill="#8F00FF" stroke="#8F00FF" stroke-linecap="round" stroke-linejoin="round"/>
<path d="M17 8.625C18.2944 8.625 19.3438 7.53369 19.3438 6.1875C19.3438 4.84131 18.2944 3.75 17 3.75C15.7056 3.75 14.6562 4.84131 14.6562 6.1875C14.6562 7.53369 15.7056 8.625 17 8.625Z" fill="#8F00FF" stroke="#8F00FF" stroke-linecap="round" stroke-linejoin="round"/>
<path d="M17 36.25C18.2944 36.25 19.3438 35.1587 19.3438 33.8125C19.3438 32.4663 18.2944 31.375 17 31.375C15.7056 31.375 14.6562 32.4663 14.6562 33.8125C14.6562 35.1587 15.7056 36.25 17 36.25Z" fill="#8F00FF" stroke="#8F00FF" stroke-linecap="round" stroke-linejoin="round"/>
<path d="M3.71875 22.4375C5.01317 22.4375 6.0625 21.3462 6.0625 20C6.0625 18.6538 5.01317 17.5625 3.71875 17.5625C2.42433 17.5625 1.375 18.6538 1.375 20C1.375 21.3462 2.42433 22.4375 3.71875 22.4375Z" fill="#8F00FF" stroke="#8F00FF" stroke-linecap="round" stroke-linejoin="round"/>
<path d="M3.71875 8.625C5.01317 8.625 6.0625 7.53369 6.0625 6.1875C6.0625 4.84131 5.01317 3.75 3.71875 3.75C2.42433 3.75 1.375 4.84131 1.375 6.1875C1.375 7.53369 2.42433 8.625 3.71875 8.625Z" fill="#8F00FF" stroke="#8F00FF" stroke-linecap="round" stroke-linejoin="round"/>
<path d="M3.71875 36.25C5.01317 36.25 6.0625 35.1587 6.0625 33.8125C6.0625 32.4663 5.01317 31.375 3.71875 31.375C2.42433 31.375 1.375 32.4663 1.375 33.8125C1.375 35.1587 2.42433 36.25 3.71875 36.25Z" fill="#8F00FF" stroke="#8F00FF" stroke-linecap="round" stroke-linejoin="round"/>
<path d="M30.2812 22.4375C31.5757 22.4375 32.625 21.3462 32.625 20C32.625 18.6538 31.5757 17.5625 30.2812 17.5625C28.9868 17.5625 27.9375 18.6538 27.9375 20C27.9375 21.3462 28.9868 22.4375 30.2812 22.4375Z" fill="#8F00FF" stroke="#8F00FF" stroke-linecap="round" stroke-linejoin="round"/>
<path d="M30.2812 8.625C31.5757 8.625 32.625 7.53369 32.625 6.1875C32.625 4.84131 31.5757 3.75 30.2812 3.75C28.9868 3.75 27.9375 4.84131 27.9375 6.1875C27.9375 7.53369 28.9868 8.625 30.2812 8.625Z" fill="#8F00FF" stroke="#8F00FF" stroke-linecap="round" stroke-linejoin="round"/>
<path d="M30.2812 36.25C31.5757 36.25 32.625 35.1587 32.625 33.8125C32.625 32.4663 31.5757 31.375 30.2812 31.375C28.9868 31.375 27.9375 32.4663 27.9375 33.8125C27.9375 35.1587 28.9868 36.25 30.2812 36.25Z" fill="#8F00FF" stroke="#8F00FF" stroke-linecap="round" stroke-linejoin="round"/>
</svg>
